X:1
T: Arbeadie
C:
R:Strathspey
Q:128
K:D
M:4/4
L:1/16
|:A3G F3A DD3 F4|B3A G3B EE3 G4|A3G F3A DD3 F4|G3B CA3 FD3 D4|
A3G F3A DD3 F4|B3A G3B EE3 G4|A3G F3A DD3 F4|G3B CA3 FD3 D2g2|
fga2 (3g2f2e2 d2F2 A2d2|(3g2a2b2 (3a2g2f2 e2G2 B2e2|fga2 (3g2f2e2 d2F2 A2d2|(3c2e2d2 (3b2a2g2 fd3 d3g|
(3f2g2a2 (3g2f2e2 d2F2 A2d2|(3g2a2b2 (3a2g2f2 e2G2 B2e2|fga2 gfe2 (3d2c2B2 (3A2G2F2|(3E2F2G2 (3A2B2c2 dD3 D4:|
